X: 40473
T: Tom's Delight
R: hornpipe
M: 4/4
K: Cmajor
|:(3GAB|c>BG>E F2 E>D|C>DE>C F2 E>D|C>DE>F G>ce>c|d>BG>^F G>A (3BAG|
c>BG>E F2 E>D|C>DE>C F2 E>D|C>DE>C F>DB,>C|D>CC>B, C2:|
|:(3GAB|c2 ec Gcec|dBGA _B3d|cBGF ECCE|FEDC B,CDB,|
c2 ec Gcec|dBGA _B3d|c2 Bd cGEG|FDB,D C2:|

